svgs/icons/sm/plus.svg

<svg xmlns="http://www.w3.org/2000/svg" viewBox="0 0 16 16"><path fill="#34363D" d="M13.5 6h-3.5v-3.5c0-.8-.7-1.5-1.5-1.5h-1c-.8 0-1.5.7-1.5 1.5v3.5h-3.5c-.8 0-1.5.7-1.5 1.5v1c0 .8.7 1.5 1.5 1.5h3.5v3.5c0 .8.7 1.5 1.5 1.5h1c.8 0 1.5-.7 1.5-1.5v-3.5h3.5c.8 0 1.5-.7 1.5-1.5v-1c0-.8-.7-1.5-1.5-1.5z"/></svg>

<svg xmlns="http://www.w3.org/2000/svg" viewBox="0 0 16 16"><path fill="#34363D" d="M13.5 6H10V2.5C10 1.7 9.3 1 8.5 1h-1C6.7 1 6 1.7 6 2.5V6H2.5C1.7 6 1 6.7 1 7.5v1c0 .8.7 1.5 1.5 1.5H6v3.5c0 .8.7 1.5 1.5 1.5h1c.8 0 1.5-.7 1.5-1.5V10h3.5c.8 0 1.5-.7 1.5-1.5v-1c0-.8-.7-1.5-1.5-1.5z"/></svg>
